svgs/youtube_tv.svg

<svg width="24" height="24" viewBox="0 0 24 24" fill="none" xmlns="http://www.w3.org/2000/svg">
<path fill-rule="evenodd" clip-rule="evenodd" d="M2.66667 4.49998C2.29848 4.49998 2 4.79846 2 5.16665V16.8333C2 17.2015 2.29848 17.5 2.66667 17.5H21.3333C21.7015 17.5 22 17.2015 22 16.8333V5.16665C22 4.79846 21.7015 4.49998 21.3333 4.49998H2.66667ZM15.1667 10.9167L10.1667 8.16665V13.6667L15.1667 10.9167Z" fill="black"/>
<path d="M18.1668 18.8333H5.8335V20.1666H18.1668V18.8333Z" fill="black"/>
</svg>

<svg xmlns="http://www.w3.org/2000/svg" width="24" height="24" fill="none" viewBox="0 0 24 24"><path fill="#000" fill-rule="evenodd" d="M2.667 4.5A.667.667 0 0 0 2 5.167v11.666c0 .369.298.667.667.667h18.666a.667.667 0 0 0 .667-.667V5.167a.667.667 0 0 0-.667-.667H2.667m12.5 6.417-5-2.75v5.5l5-2.75" clip-rule="evenodd"/><path fill="#000" d="M18.167 18.833H5.834v1.334h12.333z"/></svg>
